X: 40378
T: Tom Hackett's Dream
R: jig
M: 6/8
K: Gmajor
|:dc|BGG Bcd|ecc Gce|dBG dBG|DFA AGA|
B2G Bcd|ecc Gce|dBG cAF|AGF G:|
|:GA|B2d gdB|c2e gec|B2d gdB|Adf fed|
B2d gdB|c2e gec|BdB cAF|AGF G:|

